packages/nouns-webapp/src/assets/icons/AbsentVote.svg

<svg width="36" height="36" viewBox="0 0 36 36" fill="none" xmlns="http://www.w3.org/2000/svg">
<rect width="36" height="36" rx="18" fill="#F4F4F8"/>
<g clip-path="url(#clip0_375:210)">
<path d="M18 7C15.6131 7 13.3239 7.96292 11.636 9.67692C9.94821 11.3909 9 13.7156 9 16.1396V27.6331C8.99975 27.7685 9.03913 27.901 9.11312 28.0136C9.18712 28.1263 9.2924 28.2141 9.41561 28.2659C9.53882 28.3177 9.6744 28.3311 9.80515 28.3045C9.93591 28.2779 10.0559 28.2125 10.15 28.1165L11.5255 26.7197C11.6516 26.5921 11.8224 26.5204 12.0005 26.5204C12.1786 26.5204 12.3494 26.5921 12.4755 26.7197L14.5255 28.8015C14.6518 28.9288 14.8225 29.0003 15.0005 29.0003C15.1785 29.0003 15.3492 28.9288 15.4755 28.8015L17.5255 26.7197C17.6516 26.5921 17.8224 26.5204 18.0005 26.5204C18.1786 26.5204 18.3494 26.5921 18.4755 26.7197L20.5255 28.8015C20.6518 28.9288 20.8225 29.0003 21.0005 29.0003C21.1785 29.0003 21.3492 28.9288 21.4755 28.8015L23.5255 26.7197C23.6516 26.5921 23.8224 26.5204 24.0005 26.5204C24.1786 26.5204 24.3494 26.5921 24.4755 26.7197L25.85 28.1165C25.9441 28.2125 26.0641 28.2779 26.1948 28.3045C26.3256 28.3311 26.4612 28.3177 26.5844 28.2659C26.7076 28.2141 26.8129 28.1263 26.8869 28.0136C26.9609 27.901 27.0002 27.7685 27 27.6331V16.1396C27 13.7156 26.0518 11.3909 24.364 9.67692C22.6761 7.96292 20.3869 7 18 7V7ZM15.9585 16.0568L16.846 16.9581C16.9041 17.0173 16.9367 17.0974 16.9367 17.181C16.9367 17.2645 16.9041 17.3447 16.846 17.4039L16.35 17.9076C16.3212 17.9369 16.287 17.9602 16.2493 17.9761C16.2117 17.9919 16.1713 18.0001 16.1305 18.0001C16.0897 18.0001 16.0493 17.9919 16.0117 17.9761C15.974 17.9602 15.9398 17.9369 15.911 17.9076L15.023 17.0063C14.9942 16.977 14.96 16.9537 14.9223 16.9379C14.8847 16.922 14.8443 16.9138 14.8035 16.9138C14.7627 16.9138 14.7223 16.922 14.6847 16.9379C14.647 16.9537 14.6128 16.977 14.584 17.0063L13.6965 17.9076C13.6382 17.9666 13.5593 17.9997 13.477 17.9997C13.3947 17.9997 13.3158 17.9666 13.2575 17.9076L12.7615 17.4039C12.7034 17.3447 12.6708 17.2645 12.6708 17.181C12.6708 17.0974 12.7034 17.0173 12.7615 16.9581L13.65 16.0568C13.6789 16.0276 13.7018 15.9928 13.7174 15.9546C13.733 15.9163 13.7411 15.8753 13.7411 15.8339C13.7411 15.7925 13.733 15.7515 13.7174 15.7132C13.7018 15.675 13.6789 15.6403 13.65 15.611L12.7615 14.7092C12.7034 14.65 12.6708 14.5699 12.6708 14.4863C12.6708 14.4028 12.7034 14.3226 12.7615 14.2634L13.2575 13.7597C13.3158 13.7008 13.3947 13.6677 13.477 13.6677C13.5593 13.6677 13.6382 13.7008 13.6965 13.7597L14.584 14.6615C14.6423 14.7205 14.7212 14.7536 14.8035 14.7536C14.8858 14.7536 14.9647 14.7205 15.023 14.6615L15.911 13.7597C15.9693 13.7008 16.0482 13.6677 16.1305 13.6677C16.2128 13.6677 16.2917 13.7008 16.35 13.7597L16.846 14.2634C16.9041 14.3226 16.9367 14.4028 16.9367 14.4863C16.9367 14.5699 16.9041 14.65 16.846 14.7092L15.9585 15.6105C15.9296 15.6398 15.9067 15.6746 15.891 15.7129C15.8754 15.7512 15.8674 15.7922 15.8674 15.8337C15.8674 15.8751 15.8754 15.9162 15.891 15.9545C15.9067 15.9928 15.9296 16.0275 15.9585 16.0568ZM22.3505 16.0568L23.2385 16.9581C23.2966 17.0173 23.3292 17.0974 23.3292 17.181C23.3292 17.2645 23.2966 17.3447 23.2385 17.4039L22.7425 17.9076C22.7137 17.9369 22.6795 17.9602 22.6418 17.9761C22.6042 17.9919 22.5638 18.0001 22.523 18.0001C22.4822 18.0001 22.4418 17.9919 22.4042 17.9761C22.3665 17.9602 22.3323 17.9369 22.3035 17.9076L21.416 17.0063C21.3872 16.977 21.3529 16.9537 21.3152 16.9378C21.2775 16.9219 21.2371 16.9138 21.1962 16.9138C21.1554 16.9138 21.115 16.9219 21.0773 16.9378C21.0396 16.9537 21.0053 16.977 20.9765 17.0063L20.089 17.9076C20.0307 17.9666 19.9518 17.9997 19.8695 17.9997C19.7872 17.9997 19.7083 17.9666 19.65 17.9076L19.154 17.4039C19.0958 17.3448 19.0631 17.2646 19.0631 17.181C19.0631 17.0974 19.0958 17.0172 19.154 16.9581L20.0415 16.0568C20.0704 16.0276 20.0933 15.9928 20.1089 15.9546C20.1245 15.9163 20.1326 15.8753 20.1326 15.8339C20.1326 15.7925 20.1245 15.7515 20.1089 15.7132C20.0933 15.675 20.0704 15.6403 20.0415 15.611L19.154 14.7092C19.0958 14.6501 19.0631 14.5699 19.0631 14.4863C19.0631 14.4027 19.0958 14.3226 19.154 14.2634L19.65 13.7597C19.7083 13.7008 19.7872 13.6677 19.8695 13.6677C19.9518 13.6677 20.0307 13.7008 20.089 13.7597L20.9765 14.6615C21.0349 14.7205 21.1139 14.7536 21.1962 14.7536C21.2786 14.7536 21.3576 14.7205 21.416 14.6615L22.3035 13.7597C22.3618 13.7008 22.4407 13.6677 22.523 13.6677C22.6053 13.6677 22.6842 13.7008 22.7425 13.7597L23.2385 14.2634C23.2966 14.3226 23.3292 14.4028 23.3292 14.4863C23.3292 14.5699 23.2966 14.65 23.2385 14.7092L22.35 15.6105C22.2919 15.6698 22.2593 15.75 22.2593 15.8337C22.2593 15.9173 22.2919 15.9975 22.35 16.0568H22.3505Z" fill="#8C8D92"/>
</g>
<defs>
<clipPath id="clip0_375:210">
<rect width="18" height="22" fill="white" transform="translate(9 7)"/>
</clipPath>
</defs>
</svg>

<svg xmlns="http://www.w3.org/2000/svg" width="36" height="36" fill="none">
    <rect width="36" height="36" fill="#F4F4F8" rx="18"/>
    <g clip-path="url(#a)">
        <path fill="#8C8D92" d="M18 7a8.93 8.93 0 0 0-6.364 2.677A9.2 9.2 0 0 0 9 16.14v11.493a.69.69 0 0 0 .416.633.66.66 0 0 0 .734-.15l1.375-1.396a.67.67 0 0 1 .95 0l2.05 2.082a.67.67 0 0 0 .95 0l2.05-2.082a.67.67 0 0 1 .95 0l2.05 2.082a.67.67 0 0 0 .95 0l2.05-2.082a.67.67 0 0 1 .95 0l1.375 1.396a.67.67 0 0 0 .734.15.69.69 0 0 0 .416-.633V16.14a9.2 9.2 0 0 0-2.636-6.463A8.93 8.93 0 0 0 18 7m-2.041 9.057.887.901a.32.32 0 0 1 0 .446l-.496.504a.3.3 0 0 1-.22.092.3.3 0 0 1-.219-.092l-.888-.902a.31.31 0 0 0-.439 0l-.887.902a.31.31 0 0 1-.44 0l-.495-.504a.32.32 0 0 1 0-.446l.888-.901a.3.3 0 0 0 .091-.223.32.32 0 0 0-.091-.223l-.889-.902a.32.32 0 0 1 0-.446l.497-.503a.31.31 0 0 1 .439 0l.887.902a.31.31 0 0 0 .439 0l.888-.902a.31.31 0 0 1 .439 0l.496.503a.32.32 0 0 1 0 .446l-.887.902a.317.317 0 0 0 0 .446m6.392 0 .887.901a.32.32 0 0 1 0 .446l-.495.504a.3.3 0 0 1-.22.092.3.3 0 0 1-.22-.092l-.887-.902a.31.31 0 0 0-.339-.068.3.3 0 0 0-.1.068l-.888.902a.31.31 0 0 1-.439 0l-.496-.504a.32.32 0 0 1 0-.446l.887-.901a.3.3 0 0 0 .092-.223.32.32 0 0 0-.091-.223l-.888-.902a.32.32 0 0 1 0-.446l.496-.503a.31.31 0 0 1 .439 0l.888.902a.31.31 0 0 0 .439 0l.887-.902a.31.31 0 0 1 .44 0l.495.503a.32.32 0 0 1 0 .446l-.888.902a.32.32 0 0 0 0 .446"/>
    </g>
    <defs>
        <clipPath id="a">
            <path fill="#fff" d="M9 7h18v22H9z"/>
        </clipPath>
    </defs>
</svg>
